!!!ONB: MCCC : IFS0592_04 : Extracted Monophonic Melody
!!!COM: Schubert, Franz
!!!OPR: Piano Sonata in C minor
!!!OMV: 4
!!!SCT: D.958
!!!ODT: 1828///
**kern
*staff1
*clefG2
*k[f#]
*G:
*M6/8
8g
=2
4dd#
8dd#
4dd
8dd
=3
4cc
8cc
4gg
8gg
=4
4dd
8dd
4g
8g
=5
4dd#
8dd#
4cc
8cc
=6
4gg#
8gg#
4bb
8bb
=7
4ccc
8ccc
4ddd#
8ddd#
=8
4ggg
8ggg
4fff#
8fff#
=9
4ggg
8g
4gg
8g
=10
4dd#
8dd#
4dd
8dd
=11
4cc
8cc
4gg
8gg
=12
4dd
8dd
4g
8g
=13
4dd#
8dd#
4cc
8cc
=14
4gg#
8gg#
4bb
8bb
=15
4ccc
8ccc
4ddd#
8ddd#
=16
4ggg
8ggg
4ggg
8ggg
=17
4.cccc
4r
8gg
=18
4gg#
8gg#
4ff
8ff
=19
4dd
8dd
4bb
8bb
=20
4ccc
8ccc
4cc
8cc
=21
4gg
8fff#
8ggg
8fff#
8ggg
=22
4ggg#
8ggg#
4fff
8fff
=23
4ddd
8ddd
4bb
8bb
=24
4ccc
8ccc
4ff#
8ff#
=25
4.gg
4r
8g
=26
4dd#
8dd#
4dd
8dd
=27
4cc
8cc
4gg
8gg
=28
4dd
8dd
4g
8g
=29
4dd#
8g#
4gg#
8g#
=30
4ff
8ff
4dd#
8dd#
=31
4cc#
8cc#
4gg#
8gg#
=32
4dd#
8dd#
4g#
8g#
=33
4ff
8b-
4bb-
8b-
=34
4ff#
8ff#
4ff
8ff
=35
4dd#
8cc
4ccc
8cc
=36
4ccc
8ccc
4gg#
8gg#
=37
4ff
8ff
4cc
8cc
=38
4g#
8g#
4f
8f
=39
4c
8c
4G#
8F
=40
4C#
8C#
4c#
8c#
=41
4c
8c
4cc
8C
=42
4C#
8C#
4c#
8c#
=43
4c
8c
4cc
8C
=44
4C#
8C#
4c#
8c#
=45
4d
8d
4dd
8D
=46
4D#
8D#
4d#
8d#
=47
4e
8e
4ee
8E
=48
4F
8F
4F#
8f#
=49
4g
8gg
4gg#
8gg#
=50
4ggg#
8ggg#
4eee
8eee
=51
4ccc#
8ccc#
4gg#
8gg#
=52
4ee
8ee
4cc#
8cc#
=53
4ee
8ee
4cc#
8gg#
=54
4ggg#
8ggg#
4fff
8fff
=55
4ccc#
8ccc#
4gg#
8gg#
=56
4ff
8ff
4cc#
8cc#
=57
4ff
8ff
4cc
8cc
=58
4b
8gg
4gg
8gg
=59
8gg#
8gg
8ff#
8gg
8ggg
8fff#
=60
4ggg
8g
4g
8g
=61
8g#
8g
8f#
8g
8gg
8ff#
=62
8gg#
8gg
8ff#
8gg
8ggg
8fff#
=63
8ggg
8gg
8ff#
8gg#
8gg
8ff#
=64
8gg
8g
8f#
8g#
8g
8f#
=65
8g#
8g
8f#
8g#
8g
8f#
=66
4g
8g
4gg
8g
=67
4gg
8g
4gg
8g
=68
4ee
8ee
4dd
8dd
=69
4cc
8cc
4gg
8gg
=70
4dd
8dd
4g
8g
=71
4ee
8ee
4cc
8cc
=72
4aa
8aa
4bb
8bb
=73
4ccc
8ccc
4eee
8gg
=74
4ccc
8ccc
4ddd
8ddd
=75
4gg
8ee
4gg
8ggg
=76
4aaa
8aaa
4bbb
8bbb
=77
4cccc
8cccc
4eeee
8gg
=78
4ccc
8ccc
4ddd
8ddd
=79
4gg
8ee
4cc
8cc
=80
4b
8b
4a
8a
=81
4ff
8ff
4b
8b
=82
4gg
8gg
4gg#
8gg#
=83
4gg
8gg
4ccc
8ccc
=84
4bb
8bb
4aa
8aa
=85
4fff
8fff
4bb
8bb
=86
4ccc
8cccc
4ggg#
8ggg#
=87
4ggg
8ggg
4ccc#
8ccc#
=88
4ccc
8ccc
4gg#
8gg#
=89
4gg
8gg
4cc#
8cc#
=90
4cc
8cc
4g#
8g#
=91
4g
8g
4c#
8c#
=92
4c
8c
4c#
8c#
=93
4c
8c
4c#
8c#
=94
2.c#[
=95
2.c#]
=96
8d
8d#
8e#
8f#
8g#
8b-
=97
8cc
8cc#
8dd#
8ee#
8ff#
8gg#
=98
4.ccc#
4.c#[
=99
4.c#]
4c#[
16c#]
16c#
=100
8G#
4c#
4.c#[
=101
2.c#]
=102
8d
8d#
8e#
8f#
8g#
8b-
=103
8cc
8cc#
8dd#
8ee#
8ff#
8gg#
=104
4.fff
4.c#[
=105
2.c#]
=106
8g#
8b-
8cc
8cc#
8dd#
8ee#
=107
8ff#
8gg#
8bb-
8ccc
8ccc#
8ddd#
=108
4.cccc#
4.c#
=109
4.ggg#
4.c#
=110
4.fff
4.c#
=111
2.r
=112
4.ccc#
4.c#
=113
2.r
=114
2.r
=115
4.g#
4.c#
=116
4.GG#
4.CC#
=117
2.cc#
=118
2.f#
=119
4.g#
4.c#
=120
4.GG#
4.CC#
=121
2.dd#
=122
2.g#
=123
4.g#
4.c#
=124
4.GG#
4.CC#
=125
2.cc#
=126
2.f#
=127
4.g#
4.b
=128
4.f#
4.b
=129
4.EE
4.GG#
=130
4.DD#
4.GG#
=131
4.gg#
4.cc#
=132
4.G#
4.C#
=133
8ccc#
8ccc
8bb
8bb-
8aa
8gg#
=134
8gg
8ff#
8ee#
8ff#
8gg#
8aa
=135
4.gg#
4.cc#
=136
4.G#
4.C#
=137
8ddd#
8ddd
8ccc#
8ccc
8bb
8bb-
=138
8aa
8gg#
8ff##
8gg#
8aa
8ff#
=139
4.gg#
4.cc#
=140
4.G#
4.C#
=141
8ccc#
8bb#
8ccc#
8ddd
8ccc#
8ccc
=142
8bb
8bb-
8aa
8bb-
8bb
8ccc
=143
4.ccc#
4.eee
=144
4.bb
4.eee
=145
4.C
4.E
=146
4.BB
4.E
=147
4c
8e
4e
8e
=148
4e
8f
4f
8f#
=149
4a
8g
4g
8g
=150
4g
8g
4g
8g
=151
4g
8cc
4cc
8cc
=152
4b
8cc
4cc
8cc
=153
4ee
8dd
4dd
8dd
=154
4dd
8dd
4dd
8dd
=155
4cc
8ff
4ee
8ee
=156
4aa
8aa
4gg
8gg
=157
4cc
8ff
4ee
8ee
=158
4aa
8aa
4gg
8gg
=159
4d#
8g
4g
8g
=160
4g
8g#
4g#
8a
=161
4cc
8b-
4b-
8b-
=162
4b-
8b-
4b-
8b-
=163
4b-
8dd#
4dd#
8dd#
=164
4cc##
8dd#
4dd#
8dd#
=165
4gg
8ff
4ff
8ff
=166
4ff
8ff
4ff
8ff
=167
4dd#
8gg#
4gg
8gg
=168
4ccc
8ccc
4bb-
8bb-
=169
4dd#
8gg#
4gg
8gg
=170
4ccc
8ccc
4bb-
8bb-
=171
4f#
8b-
4b-
8b-
=172
4b-
8b
4b
8cc
=173
4dd#
8cc#
4cc#
8cc#
=174
4cc#
8cc#
4cc#
8cc#
=175
4cc#
8ff#
4ff#
8ff#
=176
4ee#
8ff#
4ff#
8ff#
=177
4bb-
8gg#
4gg#
8gg#
=178
4gg#
8gg#
4gg#
8gg#
=179
4ff#
8bb-
4fff#
8fff#
=180
4.fff
4.b-
=181
4ddd#
8ddd#
4fff#
8fff#
=182
4.fff
4.b-
=183
4bb
8bb
4ddd#
8ddd#
=184
4.ccc#
4.f#
=185
4gg#
8gg#
4bb
8bb
=186
4gg#
8gg#
4dd#
8dd#
=187
4b
8b
4dd#
8dd#
=188
4gg#
8gg#
4bb
8bb
=189
8bb-
8g#
8b
8a#
8g#
8f#
=190
8e#
8d#
8c#
8B
8B-
8A
=191
8B-
8g#
8b
8a#
8g#
8f#
=192
8e#
8d#
8c#
8B
8B-
8A
=193
8B-
8G#
8B
8A#
8G#
8F#
=194
8E#
8D#
8C#
8BB
8BB-
8AA
=195
8BB-
8C
8D
8D#
8E#
8F#
=196
8G#
8B-
8c
8d
8d#
8e#
=197
8f#
8g#
8b-
8cc
8dd
8dd#
=198
8ee#
8ff#
8gg#
8bb-
8ccc
8ddd
=199
4.bbb-
4.ddd#
=200
4.b-
4.d#
=201
2.ddd#
=202
2.gg#
=203
4.ff#
4.bb-
=204
4.f
4.b-
=205
8bbb-
8aaa
8bbb-
4.ddd#
=206
8b-
8a
8b-
4.d#
=207
8ddd#
8ddd
8ccc#
8ccc
8bb
8bb-
=208
8aa
8gg#
8ff##
8gg#
8aa#
8bb
=209
4.bb-
4.ff#
=210
4.ff
4.bb-
=211
8f#
8e#
8f#
4.b-
=212
8f
8e
8f
4.b-
=213
8F#
8E#
8F#
4.B-
=214
8F
8E
8F
4.B-
=215
2.r
=216
2.gg
=217
2.dd#
=218
4.b
4.g
=219
2.cc
=220
2.cc
=221
2.cc
=222
4.b
4.g
=223
2.cc
=224
4.a
4.f
=225
2.b-
=226
2.b-
=227
2.b-
=228
4.g#
4.f
=229
4.d#
4.r
=230
2.g
=231
2.d#
=232
4.B
4.G
=233
4.c[
4.c]
=234
4.c[
4.c]
=235
4.c[
4.c]
=236
4.B
4.G
=237
4.c[
4.c]
=238
4.A
4.F
=239
4.B-[
4.B-]
=240
4.B-[
4.B-]
=241
4.B-[
4.B-]
=242
4.G#
4.F
=243
2.r
=244
2.r
=245
2.r
=246
2.r
=247
2.r
=248
4.r
4.f#
=249
2.dd#
=250
4.cc#
4.b-
=251
8b-
8b
8cc#
8dd#
8b
8cc#
=252
4.f#
4r
8f#
=253
2.ee
=254
4.dd#
4.cc#
=255
2.b#
=256
4.cc#
4.dd#
=257
8b#
8cc#
8dd#
8cc#
8bb-
8ff#
=258
8ee#
8dd#
8cc#
8b
8a#
8g#
=259
4.f#[
4f#]
8f#
=260
4cc#
8cc#
4b-
8b-
=261
4ee
8ee
4cc#
8cc#
=262
4b-
8b-
4cc#
8cc#
=263
4f#
16g#
16a#
4b
8b
=264
4dd#
8dd#
4b
8b
=265
4ff#
8ff#
4dd#
8dd#
=266
4gg#
8gg#
4ff
8ff
=267
4.ff#[
4ff#]
8ff#
=268
8ff#
8ccc#
8ccc#
8ccc#
8bb-
8bb-
=269
8bb-
8eee
8eee
8eee
8ccc#
8ccc#
=270
8ccc#
8bb-
8bb-
8bb-
8ccc#
8ccc#
=271
4ff#
16gg#
16aa#
4bb
8bb
=272
8bb
8ddd#
8ddd#
8ddd#
8bb
8bb
=273
8bb
8fff#
8fff#
8fff#
8ddd#
8ddd#
=274
8fff
8bbb
8bbb
8dddd
8fff
8fff
=275
4.fff#[
8fff#]
8eee
8ddd#
=276
8ccc#
8bb
8aa#
8gg#
8ff#
8ee
=277
2.dd#
=278
4.cc#
4.b-
=279
8b-
8b
8cc#
8dd#
8b
8cc#
=280
4.f#
4r
8f#
=281
2.ee
=282
4.dd#
4.b
=283
2.a#
=284
4.b
4.gg#
=285
8ee#
8ff#
8gg#
8ff#
8ddd#
8bb
=286
8aa#
8gg#
8ff#
8ee
8dd#
8cc#
=287
4.b[
4b]
8b
=288
4ff#
8ff#
4dd#
8dd#
=289
4aa
8aa
4ff#
8ff#
=290
4dd#
8dd#
4ff#
8ff#
=291
4b
16cc#
16dd#
4ee
8ee
=292
4gg#
8gg#
4ee
8ee
=293
4bb
8bb
4gg#
8gg#
=294
4ccc#
8ccc#
4bb-
8bb-
=295
4.bb
4bbb
8b
=296
8b
8ff#
8ff#
8ff#
8dd#
8dd#
=297
8dd#
8aa
8aa
8aa
8ff#
8ff#
=298
8ff#
8dd#
8dd#
8dd#
8ff#
8ff#
=299
4b
16cc#
16dd#
4ee
8ee
=300
8ee
8gg#
8gg#
8gg#
8ee
8ee
=301
8ee
8bb
8bb
8bb
8gg#
8gg#
=302
8bb-
8eee
8eee
8ggg
8bb-
8bb-
=303
4.bb[
8bb]
8aa
8gg#
=304
8ff#
8ee
8dd#
8cc#
8b
8a#
=305
8g#
8f#
8e
8d#
4c#
=306
2.r
=307
2.r
=308
4.r
4r
8bb
=309
4b
8b
4bb
8bb
=310
4b
8b
4bb
8bb
=311
4b
8b
4bb
8bb
=312
4b
8b
4bb
8bb
=313
4b
8b
4bb
8bb
=314
4b
8b
4bb
8bb
=315
4b
8b
4bb
8b
=316
4cc
8ccc
4ddd
8dd
=317
4cc#
8cc#
4ccc#
8ee
=318
4eee
8aa
4aaa
8aa
=319
4a
8a
4aa
8aa
=320
4a
8a
4aa
8aa
=321
4a
8a
4aa
8aa
=322
4a
8a
4aa
8aa
=323
4a
8a
4aa
8a
=324
4b-
8bb-
4ccc
8cc
=325
4b
8b
4bb
8dd
=326
4ddd
8gg
4ggg
8g[
=327
4g]
8g
4gg
8gg
=328
4g
8g
4gg
8gg
=329
4g
8g
4gg
8gg
=330
4cc
8cc
4ccc
8ccc
=331
4cc
8cc
4ccc
8ccc
=332
4cc
8ccc
4cccc
8ccc
=333
4cc
8cc
4ccc
8ccc
=334
4cc
8ccc
4cccc
8ccc
=335
4cc
8cc
4ccc
8ccc
=336
4cc
8cc
4ccc
8ccc
=337
4cc
8cc
4ccc
8ccc
=338
4cc
8cc
4ccc#
8ccc#
=339
4dd
8dd
4ddd
8ddd
=340
4dd
8dd
4ddd
8dd
=341
4ee
8ee
4eee
8eee
=342
4ee
8ee
4eee
8eee
=343
4ff
8ff
4fff
8fff
=344
4ff
8ff
4fff
8fff
=345
4ff
8ff
4fff
8fff
=346
4ff
8fff
4ffff
8fff
=347
4ff
8ff
4fff
8fff
=348
4ff
8fff
4ffff
8fff
=349
4ff
8ff
4fff
8fff
=350
4ff
8ff
4fff
8fff
=351
4ff
8ff
4fff
8fff
=352
4ff
8ff
4fff#
8fff#
=353
4gg
8gg
4ggg
8ggg
=354
4gg
8gg
4ggg
8gg
=355
4aa
8aa
4aaa
8a
=356
4cc
8cc
4dd#
8dd#
=357
4ff
8ff
4aa
8aa
=358
8bb-
8gg#
8ff#
8ee#
8dd#
8cc#
=359
8b#
8cc#
8dd
8dd#
8ee
8ff
=360
8ff#
8gg#
8bb-
8ccc
8ccc#
8ddd#
=361
8fff
8ccc#
8gg#
8ff
8cc#
8ff
=362
8gg#
8ff
8g#
8ff
8cc#
8g#
=363
8ff#
8dd#
8g#
8dd#
8cc
8g#
=364
8fff
8ccc#
8gg#
8ff
8cc#
8ff
=365
8gg#
8ff
8g#
8ff
8cc#
8g#
=366
8ff#
8dd#
8g#
8dd#
8cc
8g#
=367
8ee
8cc#
8g#
8ee
8dd
8g#
=368
8ee
8cc
8a
8ee
8cc
8b-
=369
8ff
8cc
8g#
8gg#
8ff
8cc
=370
4ccc
8ccc
4cccc
8e
=371
4g
8g
4b-
8b
=372
4cc
8cc
4ee
8ee
=373
8ff
8dd#
8cc#
8cc
8b-
8g#
=374
8f##
8g#
8a
8b-
8b
8cc
=375
8cc#
8dd#
8ff
8gg
8gg#
8bb-
=376
8ccc
8gg#
8dd#
8cc
8g#
8cc
=377
8dd#
8cc
8d#
8cc
8g#
8d#
=378
8cc#
8b-
8d#
8b-
8g
8d#
=379
8ccc
8gg#
8dd#
8cc
8g#
8cc
=380
8dd#
8cc
8d#
8cc
8f#
8d#
=381
8cc#
8b-
8d#
8b-
8g
8d#
=382
8b
8g#
8d#
8b
8a
8d#
=383
8b
8g
8e
8b
8g
8f
=384
8cc
8g
8d#
8dd#
8cc
8g
=385
4gg
8gg
4ggg
8b
=386
4dd
8dd
4ff
8ff
=387
4gg
8gg
4bb
8bb
=388
8ccc
8bb-
8gg#
8gg
8ff
8dd#
=389
8cc##
8dd#
8ee
8ff
8ff#
8gg
=390
8gg#
8bb-
8ccc
8ddd
8ddd#
8fff
=391
8ggg
8ddd#
8bb-
8gg
8dd#
8gg
=392
8bb-
8gg
8b-
8gg
8dd#
8b-
=393
8gg#
8ff
8b-
8ff
8dd
8b-
=394
8ggg
8ddd#
8bb-
8gg
8dd#
8gg
=395
8bb-
8gg
8b-
8gg
8cc#
8b-
=396
8gg#
8ff
8b-
8ff
8dd
8b-
=397
4gg
8gg
4ggg
8f#
=398
8g
8a
8b-
8b
8cc
8cc#
=399
8dd
8dd#
8ff
8gg
8aa
8bb
=400
2.ccc
=401
4.gg#
4.dd#
=402
4.cc
4.g#
=403
4gg
8gg
4ggg
8f#
=404
8g
8a
8b
8cc
8dd
8dd#
=405
8ff
8gg
8aa
8bb
8ccc
8ddd
=406
2.ddd#
=407
4.ccc
4.gg#
=408
4.dd#
4.cc
=409
4g
8gg
4ggg
8f#
=410
8g
8b
8cc
8dd
8ee
8ff#
=411
8gg
8bb
8ccc
8ddd
8fff#
8ggg
=412
2.ggg#
=413
4.ddd#
4.ccc
=414
4.gg#
4.ff#
=415
4.gg[
8gg]
8ff#
8ee
=416
8dd
8cc
8b
8a
8g
8f#
=417
8e
8d
8c
4.r
=418
2.r
=419
4.r
4r
8G
=420
4g
8g
4G
8G
=421
4.g
4r
8G
=422
4g
8g
4G
8G
=423
4g#
8g#
4G#
8G#
=424
4g#
8g#
4G#
8G#
=425
4g#
8g#
4G#
8G#
=426
4g#
8g#
4G#
8f#
=427
4g
8g
4G
8G
=428
4g
8g
4G
8G
=429
4g
8g
4G
8G
=430
4g
8g
4G
8g
=431
4dd#
8dd#
4dd
8dd
=432
4cc
8cc
4gg
8gg
=433
4dd
8dd
4g
8g
=434
4dd#
8dd#
4cc
8cc
=435
4gg#
8gg#
4bb
8bb
=436
4ccc
8ccc
4ddd#
8ddd#
=437
4ggg
8ggg
4fff#
8fff#
=438
4ggg
8g
4gg
8g
=439
4dd#
8dd#
4dd
8dd
=440
4cc
8cc
4gg
8gg
=441
4dd
8dd
4g
8g
=442
4dd#
8dd#
4cc
8cc
=443
4gg#
8gg#
4bb
8bb
=444
4ccc
8ccc
4ddd#
8ddd#
=445
4ggg
8ggg
4ggg
8ggg
=446
4.cccc
4r
8gg
=447
4gg#
8gg#
4ff
8ff
=448
4dd
8dd
4bb
8bb
=449
4ccc
8ccc
4cc
8cc
=450
4gg
8fff#
8ggg
8fff#
8ggg
=451
4ggg#
8ggg#
4fff
8fff
=452
4ddd
8ddd
4bb
8bb
=453
4ccc
8ccc
4ff#
8ff#
=454
4.gg
4r
8g
=455
4ee
8ee
4dd
8dd
=456
4cc
8cc
4gg
8gg
=457
4dd
8dd
4g
8g
=458
4ee
8ee
4cc
8cc
=459
4aa
8aa
4bb
8bb
=460
4ccc
8ccc
4eee
8gg
=461
4ccc
8ccc
4ddd
8ddd
=462
4gg
8ee
4gg
8ggg
=463
4aaa
8aaa
4bbb
8bbb
=464
4cccc
8cccc
4eeee
8gg
=465
4ccc
8ccc
4ddd
8ddd
=466
4gg
8ee
4gg
8cc
=467
4b
8b
4a
8a
=468
4ff
8ff
4b
8b
=469
4gg
8gg
4gg#
8gg#
=470
4gg
8gg
4ccc
8ccc
=471
4bb
8bb
4aa
8aa
=472
4fff
8fff
4bb
8bb
=473
4ccc
8cccc
4ggg#
8ggg#
=474
4ggg
8ggg
4ccc#
8ccc#
=475
4ccc
8ccc
4gg#
8gg#
=476
4gg
8gg
4cc#
8cc#
=477
4cc
8cc
4g#
8g#
=478
4g
8g
4c#
8c#
=479
4c
8c
4c#
8c#
=480
4c
8c
4c#
8c#
=481
2.c#[
=482
2.c#]
=483
8d
8d#
8e#
8f#
8g#
8b-
=484
8cc
8cc#
8dd#
8ee#
8ff#
8gg#
=485
4.ccc#
4.c#[
=486
4.c#]
4c#[
16c#]
16c#
=487
8G#
4c#
4.c#[
=488
2.c#]
=489
8d
8d#
8e#
8f#
8g#
8b-
=490
8cc
8cc#
8dd#
8ee#
8ff#
8gg#
=491
4.fff
4.c#[
=492
2.c#]
=493
8f
8g
8a
8b-
8cc
8dd
=494
8dd#
8ff
8gg
8aa
8bb-
8ccc
=495
4.bbb-
4.B-
=496
4.fff
4.B-
=497
4.ddd
4.B-
=498
2.r
=499
4.bb-
4.B-
=500
2.r
=501
2.r
=502
4.ff
4.b-
=503
4.F
4.BB-
=504
2.bb-
=505
2.dd#
=506
4.ff
4.b-
=507
4.F
4.BB-
=508
2.ccc
=509
2.ff
=510
4.ff
4.b-
=511
4.F
4.BB-
=512
2.bb-
=513
2.dd#
=514
4.ff
4.gg#
=515
4.dd#
4.gg#
=516
4.C#
4.F
=517
4.C
4.F
=518
4.ff
4.b-
=519
4.F
4.BB-
=520
8bb-
8aa
8gg#
8gg
8ff#
8ff
=521
8ee
8dd#
8cc##
8dd#
8ee#
8ff#
=522
4.ff
4.b-
=523
4.F
4.BB-
=524
8ccc
8bb
8bb-
8aa
8gg#
8gg
=525
8ff#
8ff
8ee
8ff
8ff#
8dd#
=526
4.ff
4.b-
=527
4.F
4.BB-
=528
8bb-
8aa
8bb-
8bb
8bb-
8aa
=529
8gg#
8gg
8ff#
8gg
8gg#
8aa
=530
4.bb-
4.ccc#
=531
4.gg#
4.ccc#
=532
4.AA
4.C#
=533
4.GG#
4.C#
=534
4A
8c#
4c#
8c#
=535
4c#
8d
4d
8d#
=536
4f#
8e
4e
8e
=537
4e
8e
4e
8e
=538
4e
8a
4a
8a
=539
4g#
8a
4a
8a
=540
4cc#
8b
4b
8b
=541
4b
8b
4b
8b
=542
4a
8dd
4cc#
8cc#
=543
4ff#
8ff#
4ee
8ee
=544
4a
8dd
4cc#
8cc#
=545
4ff#
8ff#
4ee
8ee
=546
4c
8e
4e
8e
=547
4e
8f
4f
8f#
=548
4a
8g
4g
8g
=549
4g
8g
4g
8g
=550
4g
8cc
4cc
8cc
=551
4b
8cc
4cc
8cc
=552
4ee
8dd
4dd
8dd
=553
4dd
8dd
4dd
8dd
=554
4cc
8ff
4ee
8ee
=555
4aa
8aa
4gg
8gg
=556
4cc
8ff
4ee
8ee
=557
4aa
8aa
4gg
8gg
=558
4d#
8g
4g
8g
=559
4g
8g#
4g#
8a
=560
4cc
8b-
4b-
8b-
=561
4b-
8b-
4b-
8b-
=562
4b-
8dd#
4dd#
8dd#
=563
4cc##
8dd#
4dd#
8dd#
=564
4gg
8ff
4ff
8ff
=565
4ff
8ff
4ff
8ff
=566
4dd#
8gg
4ddd#
8ddd#
=567
4.ddd
4.g
=568
4ccc
8ccc
4ddd#
8ddd#
=569
4.ddd
4.g
=570
4gg#
8gg#
4ccc
8ccc
=571
4.bb-
4.d#
=572
4ff
8ff
4gg#
8gg#
=573
4ff
8ff
4cc
8cc
=574
4g#
8g#
4cc
8cc
=575
4ff
8ff
4gg#
8gg#
=576
8gg
8f
8g#
8g
8f
8d#
=577
8d
8c
8B-
8G#
8G
8F#
=578
8G
8f
8g#
8g
8f
8d#
=579
8d
8c
8B-
8G#
8G
8F#
=580
8G
8F
8G#
8G
8F
8D#
=581
8D
8C
8BB-
8GG#
8GG
8FF#
=582
8GG
8AA
8BB
8C
8D
8D#
=583
8F
8G
8A
8B
8c
8d
=584
8d#
8f
8g
8a
8b
8cc
=585
8dd
8dd#
8ff
8gg
8aa
8bb
=586
4.ggg
4.ccc
=587
4.g
4.c
=588
2.ccc
=589
2.ff
=590
4.dd#
4.gg
=591
4.d
4.g
=592
8ggg
8fff#
8ggg
4.ccc
=593
8g
8f#
8g
4.c
=594
8ccc
8bb
8bb-
8aa
8gg#
8gg
=595
8ff#
8ff
8ee
8ff
8gg
8gg#
=596
4.gg
4.dd#
=597
4.dd
4.gg
=598
8d#
8c##
8d#
4.g
=599
8d
8c#
8d
4.g
=600
8D#
8C##
8D#
4.G
=601
8D
8C#
8D
4.G
=602
2.r
=603
2.ee
=604
2.cc
=605
4.g#
4.e
=606
2.a
=607
2.a
=608
2.a
=609
4.g#
4.e
=610
2.a
=611
4.f#
4.d
=612
2.g
=613
2.g
=614
2.g
=615
4.f
4.d
=616
4.c
4.r
=617
2.e
=618
2.c
=619
4.G#
4.E
=620
4.A[
4.A]
=621
4.A[
4.A]
=622
4.A[
4.A]
=623
4.G#
4.E
=624
4.A[
4.A]
=625
4.F#
4.D
=626
4.G[
4.G]
=627
4.G[
4.G]
=628
4.G[
4.G]
=629
4.F
4.D
=630
4C
8C
4c
8c
=631
4C
8C
4c
8c
=632
4C
8C
4c
8c
=633
4C
8C
4c
8c
=634
4C
8C
4D#
8D#
=635
4G#
8G#
4c
8c
=636
4d#
8d#
4g#
8g#
=637
4cc
8cc
4dd#
8dd#
=638
4cc#
8cc#
4c#
8c#
=639
4cc#
8cc#
4c#
8c#
=640
4cc#
8cc#
4c#
8c#
=641
4cc#
8cc#
4c#
8c#
=642
4cc#
8cc#
4b-
8b-
=643
4g
8g
4d#
8d#
=644
4c#
8c#
4B-
8B-
=645
4D#
8D#
4C#
8C#
=646
4C
8C
4c
8c
=647
4C
8C
4c
8c
=648
4C
8C
4c
8c
=649
4C
8C
4c
8c
=650
4C
8C
4D#
8D#
=651
4G#
8G#
4c
8c
=652
4d#
8d#
4g#
8g#
=653
4cc
8cc
4dd#
8dd#
=654
4cc#
8cc#
4c#
8c#
=655
4cc#
8cc#
4c#
8cc#
=656
4dd
8dd
4d
8d
=657
4dd
8dd
4d
8dd
=658
4dd#
8dd#
4d#
8d#
=659
4dd#
8dd#
4d#
8d#
=660
4dd#
8dd#
4d#
8d#
=661
4dd#
8dd#
4d#
8d
=662
4dd
8dd
4d
8d
=663
4dd
8dd
4d
8g
=664
4dd#
8dd#
4dd
8dd
=665
4cc
8cc
4gg
8gg
=666
4dd
8dd
4g
8g
=667
4dd#
8dd#
4cc
8cc
=668
4gg#
8gg#
4bb
8bb
=669
4ccc
8ccc
4ddd#
8ddd#
=670
4ggg
8ggg
4fff#
8fff#
=671
4ggg
8g
4gg
8g
=672
4dd#
8dd#
4dd
8dd
=673
4cc
8cc
4gg
8gg
=674
4dd
8dd
4g
8g
=675
4dd#
8g#
4gg#
8g#
=676
4ff
8ff
4dd#
8dd#
=677
4cc#
8cc#
4gg#
8gg#
=678
4dd#
8dd#
4g#
8g#
=679
4ff
8b-
4bb-
8b-
=680
4ff#
8ff#
4ff
8ff
=681
4dd#
8cc
4ccc
8cc
=682
4ccc
8ccc
4gg#
8gg#
=683
4ff
8ff
4cc
8cc
=684
4g#
8g#
4f
8f
=685
4c
8c
4G#
8F
=686
4C#
8C#
4c#
8c#
=687
4c
8c
4cc
8C
=688
4C#
8C#
4c#
8c#
=689
4c
8c
4cc
8C
=690
4C#
8C#
4c#
8c#
=691
4d
8d
4dd
8D
=692
4D#
8D#
4d#
8d#
=693
4e
8e
4ee
8E
=694
4F
8F
4F#
8f#
=695
4g
8gg
4gg#
8gg#
=696
4ggg#
8ggg#
4eee
8eee
=697
4ccc#
8ccc#
4gg#
8gg#
=698
4ee
8ee
4cc#
8cc#
=699
4ee
8ee
4cc#
8gg#
=700
4ggg#
8ggg#
4fff
8fff
=701
4ccc#
8ccc#
4gg#
8gg#
=702
4ff
8ff
4cc#
8cc#
=703
4ff
8ff
4cc#
8gg#
=704
4ggg#
8ggg#
4fff
8fff
=705
4ddd
8ddd
4gg#
8gg#
=706
4gg
8gg
4ddd
8ddd
=707
4ggg
8ggg
4bbb
8bbb
=708
4cccc
8cccc
4ggg
8ggg
=709
4ddd#
8ddd#
4ddd
8ddd
=710
4ccc
8ccc
4gg
8gg
=711
4dd#
8dd#
4dd
8dd
=712
4cc
8cc
4g
8g
=713
4d#
8d#
4d
8d
=714
4c
8c
4G
8G
=715
4D#
8D#
4D
8D
=716
4C
8C
4G
8G
=717
4C
8C
4G
8G
=718
4.C
4.r
=719
4.bb
4.r
=720
4.ccc
4.r
==
*-
